dist/svgs/unicons/line/tornado.svg

<svg xmlns="http://www.w3.org/2000/svg" viewBox="0 0 24 24"><path d="M10 21H8a1 1 0 000 2h2a1 1 0 000-2zm1-4H6a1 1 0 000 2h5a1 1 0 000-2zm7-15a1 1 0 00-1-1H3a1 1 0 000 2h14a1 1 0 001-1zm3 3H6a1 1 0 000 2h15a1 1 0 000-2zm-2 4h-9a1 1 0 000 2h9a1 1 0 000-2zm-5 4H8a1 1 0 000 2h6a1 1 0 000-2z"/></svg>

<svg xmlns="http://www.w3.org/2000/svg" viewBox="0 0 24 24"><path d="M10,21H8a1,1,0,0,0,0,2h2a1,1,0,0,0,0-2Zm1-4H6a1,1,0,0,0,0,2h5a1,1,0,0,0,0-2ZM18,2a1,1,0,0,0-1-1H3A1,1,0,0,0,3,3H17A1,1,0,0,0,18,2Zm3,3H6A1,1,0,0,0,6,7H21a1,1,0,0,0,0-2ZM19,9H10a1,1,0,0,0,0,2h9a1,1,0,0,0,0-2Zm-5,4H8a1,1,0,0,0,0,2h6a1,1,0,0,0,0-2Z"/></svg>
